Hatter-kde/actions/16/snap-nodes-cusp.svg

<?xml version="1.0" encoding="UTF-8"?>
<svg viewBox="0 0 16 16" xmlns="http://www.w3.org/2000/svg">
 <defs id="defs3051">
  <style id="current-color-scheme" type="text/css">.ColorScheme-Text {
        color:#363636;
      }
      .ColorScheme-Highlight {
        color:#3daee9;
      }</style>
 </defs>
 <path class="ColorScheme-Text" d="m5 3v1h6v-1h-6zm-2 2v6h1v-6h-1zm9 0v6h1v-6h-1zm-7 7v1h6v-1h-6z" fill="currentColor"/>
 <path class="ColorScheme-Highlight" d="m2 2v3h3v-3h-3zm9 0v3h3v-3h-3zm-8 1h1v1h-1v-1zm9 0h1v1h-1v-1zm-10 8v3h3v-3h-3zm9 0v3h3v-3h-3zm-8 1h1v1h-1v-1zm9 0h1v1h-1v-1z" fill="currentColor"/>
</svg>

<svg xmlns="http://www.w3.org/2000/svg" viewBox="0 0 16 16">
  <defs id="defs3051">
    <style type="text/css" id="current-color-scheme">
      .ColorScheme-Text {
        color:#363636;
      }
      .ColorScheme-Highlight {
        color:#3daee9;
      }
      </style>
  </defs>
  <path 
        style="fill:currentColor;fill-opacity:1;stroke:none"
        d="M 5,3 5,4 11,4 11,3 5,3 Z M 3,5 3,11 4,11 4,5 3,5 Z m 9,0 0,6 1,0 0,-6 -1,0 z m -7,7 0,1 6,0 0,-1 -6,0 z"
        class="ColorScheme-Text"
        />
  <path
        style="fill:currentColor;fill-opacity:1;stroke:none"
        d="M 2 2 L 2 5 L 5 5 L 5 2 L 2 2 z M 11 2 L 11 5 L 14 5 L 14 2 L 11 2 z M 3 3 L 4 3 L 4 4 L 3 4 L 3 3 z M 12 3 L 13 3 L 13 4 L 12 4 L 12 3 z M 2 11 L 2 14 L 5 14 L 5 11 L 2 11 z M 11 11 L 11 14 L 14 14 L 14 11 L 11 11 z M 3 12 L 4 12 L 4 13 L 3 13 L 3 12 z M 12 12 L 13 12 L 13 13 L 12 13 L 12 12 z "
        class="ColorScheme-Highlight"
      />
</svg>
